X:1
T:Title
%%score [ ( 1 2 ) ( 3 4 ) ]
L:1/8
Q:1/4=120
M:6/8
K:Bb
V:1 treble nm="Midi_74" snm=" "
V:2 treble 
V:3 bass nm="Midi_74"
V:4 bass 
V:1
"^E.H. Sears" F | d2 A cBG | F2"^It came upon the midnight clear" G F2 F | GAB Bcd | %4
w: It|came up- on * the|mid- night clear, that|glo- * rious song * of|
w: ||||
w: Yet|with the woes * of|sin and strife the|world * ~~has suf * fered|
"^Richard Storrs Willis" c3- c2 ||[M:6/8] F | d2 A cBG | F2 G F2 F | G2 G AGF | B3- B2 || d | %11
w: old, *|from|an- gels bend ~~- ing|near the earth to|touch their harps * of|gold: *|"Peace|
w: |||||||
w: long; *|be-|neath the an- * gel-|strain have rolled two|thou- sand years * of|wrong; *|and|
 d2 D D=E^F | G2 A B2 d | cBA GAG | F3- F2 || F | d2 A cBG | F2 G F2 F | G2 G AGF | B3- B2 |] %20
w: on the earth, * good-|will to men, from|heav'n's * all- gra- * cious|King!" *|The|world in so * lemn|still- ness lay to|hear the an * gels|sing. *|
w: |||||||||
w: man, at war * with|man, hears not the|love- * song which * they|bring: *|O|hush the noise, * ye|men of strife, and|hear the an * gels|sing. *|
V:2
 D | D2 D E2 E | D2 E D2 D | E2 E =E2 E | F3- F2 ||[M:6/8] F | D2 D E2 E | D2 E D2 F | E2 E E2 E | %9
w: |||||||||
w: Still|through the clo- ven|skies they come, with|peace- ful wings un-|furled; *|and|still their heav'n- ly|mu- sic floats o'er|all the wea- ry|
w: |||||||||
w: For|lo! the days are|has- tening on, by|pro- phet bards ~~fore-|told, *|when,|with the ev- er-|circ- ling years comes|round the age of|
 D3- D2 || D | D2 D D2 D | D2 D D2 D | F2 F =E2 E | F3- F2 || !courtesy!_E | D2 D E2 E | %17
w: ||||||||
w: world; *|a-|bove its sad and|low- ly plains they|bend on ho- v'ring|wing: *|and|ev- er o'er its|
w: ||||||||
w: gold; *|when|peace shall ov- er|all the earth its|an- cient splen- dours|fling, *|and|the whole world give|
 D2 E D2 F | E2 E E2 E | D3- D2 |] %20
w: |||
w: Ba- bel- sounds the|bless- èd an- gels|sing. *|
w: |||
w: back the song which|now the an- gels|sing. *|
V:3
 F, | F,2 ^F, G,2 A, | B,2 F, F,2 B, | B,2 B, B,2 B, | A,3- A,2 ||[M:6/8] F, | F,2 ^F, G,2 A, | %7
 B,2 F, F,2 B, | B,2 C CB,A, | B,3- B,2 || D, | D,2 ^F, F,G,A, | G,2 ^F, G,2 G, | A,DC B,CB, | %14
 A,3- A,2 ||"^This edition  Andrew Sims 2014" A, | B,2 ^F, G,2 A, | B,2 F, F,2 B, | B,2 C CB,A, | %19
 B,3- B,2 |] %20
V:4
 B,, | B,,2 B,, B,,2 B,, | B,,2 A,, B,,2 B,, | E,F,G, G,2 C, | F,3- F,2 ||[M:6/8] F, | %6
 B,,2 B,, B,,2 B,, | B,,2 A,, B,,2 D, | E,2 C, F,2 F, | B,,3- B,,2 || D, | D,2 D, D,2 C, | %12
 B,,2 D, G,2 B,, | C,2 C, C,2 C, | F,3- F,2 || F, | B,,2 B,, B,,2 B,, | B,,2 A,, B,,2 D, | %18
 E,2 C, F,2 F, | B,,3- B,,2 |] %20

